X:763401
T:Amazing Grace
H: 
C: Trad (1828)
B: Columbian Harmony (1829)
O:Kevin Fraser
Z:Kevin Fraser
Q:1/4=90
K:HP
M:3/4
L:1/8
R:March
U: R = ///
U: r = //
U: V = !accent!
V:M gstem=up stem=down name="Melody"
V:H gstem=up stem=down name="Harmony"
V:C gstem=up stem=down name="C-Harmony"
V:S gstem=up stem=down dyn=up stafflines=1 clef=perc middle=G name="Snare" sname="Snare"
V:B gstem=up stem=down clef=none dyn=up name="Bass"
V:T gstem=up stem=down clef=none dyn=up name="Tenor"
V:BB gstem=up stem=down name="Brass Bass" sname="ABCD-C" transpose=-1  octave=-1 clef=bass
V:BC gstem=up stem=down name="Brass Chord" sname="ABCD-D" transpose=-1
V:BD gstem=up stem=down name="Brass Chord 2" sname="ABCD-B" transpose=-1
V:P gstem=up stem=down name="Piano" octave=-1
I:MIDI=program 110
%%MIDI program 109 #bagpipes
%%MIDI vol 100
V:M
I:linebreak $
I:MIDI=program 110
V:M
|: {g}Ad | {gdG}d4 {g}fe/d/ | {gfg}f4 {g}fe | {Gdc}d4 {g}B2 | {G}A4 {g}Ad | $
w:    A  | ma        zing   |grace!   How   | sweet     the | sound    that| 
w:	 | Shout            | Shout         |  for      glor|  y          |
V:M
         | {gdG}d4 {g}fe/d/ | {gfg}f4 {g}ef | {ag}a6        |{g}a4 fa     | $
w:       |    saved       a | wretch   like |   me.	    |      I      |
w:       |  Shout     shout |  aloud   for  | glory         |             |
V:M
         | {g}a4   {fg}fe/d/| {gfg}f4 {g}fe | {Gdc}d4 {g}B2 | {G}A4 {g}Ad | $
w: 	      once     was  |  lost     but |    now     am | found   was |
w:       | Brother          | sister        | mourner       |   _     all
V:M
         | {gdG}d4 {g}fe/d/ | {gfg}f4 e2    | [1{Gdc}d6     | {gdG}d4 :|[2{gef}e6 | {Gdc}d4|| $
w: 	 | blind        but |   now   I     |   see.
w:       | shout      glory |   hal   le    |               |           |lu       |jah.||
W: "Amazing Grace" (Lyrics) is a Christian hymn published in 1779, with words written in 1772 by the English poet and 
W: Anglican clergyman John Newton (17251807). Newton wrote the words from personal experience. 
W:
W: "Amazing Grace" lyrics have been joined with the traditional tune "New Britain".  It appeared for the W: first time in Walker's shape note tunebook Southern Harmony in 1847.
W:
W: "New Britain". This was an amalgamation of two melodies ("Gallaher" and "St. Mary"), 
W: first published in the Columbian Harmony by Charles H. Spilman and Benjamin Shaw (Cincinnati, 1829). 
W: Spilman and Shaw, both students at Kentucky's Centre College, compiled their tunebook both for public W: worship and revivals, to satisfy "the wants of the Church in her triumphal march". 
W:
W: As neither tune is attributed and both show elements of oral transmission, scholars can only speculate 
W: that they are of British origin. A manuscript from 1828 by Lucius Chapin contains a tune very close to W: "St. Mary", W: but that does not mean that he wrote it.
V:H
|: {gf}g2| {gfg}f4 {g}dA    | {gdc}d4 {g}dc | {gbd}B4 {gf}g2| {gfg}f4 {gf}g2 | $
V:H
         | {gfg}f4 {g}dA    | {gdc}d4 {g}cd | {gef}e4   {g}B2|{gcd}c4 {g}cd   | $
V:H
         | {gdc}d4 {fg}cB/A/| {gcd}c4 {g}A2 | {gBd}B4 {gf}g2| {gfg}f4 {gf}g2 | $
V:H
         | {gfg}f4 {g}dA    | {gdc}d4 {g}cd | [1{gBd}B6     | {G}A4 :|[2{gcd}c2{e}A2{d}G2 | {g}A4|| $

